packages/kaspersky-hexa-ui-icons/src/iconsSVGs/16/CloudSync.svg

<svg width="16" height="16" viewBox="0 0 16 16" fill="none" xmlns="http://www.w3.org/2000/svg">
<path d="M7.36865 7.35156C7.39913 7.35227 7.42932 7.35538 7.45947 7.36035C7.47026 7.36213 7.48099 7.36389 7.4917 7.36621C7.51818 7.37196 7.54409 7.37959 7.56982 7.38867C7.58321 7.3934 7.59675 7.39769 7.60986 7.40332C7.63454 7.41391 7.65768 7.42762 7.68115 7.44141C7.69306 7.4484 7.70575 7.4541 7.71729 7.46191C7.75088 7.48468 7.78323 7.5103 7.81299 7.54004L9.146 8.87402C9.33637 9.06439 9.38472 9.3434 9.28955 9.57812C9.25782 9.6564 9.2095 9.72947 9.146 9.79297C9.01891 9.91997 8.85256 9.98261 8.68604 9.98242C8.51991 9.98232 8.35383 9.91974 8.22705 9.79297L8.00342 9.56934V13.333C8.00342 13.4679 7.96248 13.5933 7.89209 13.6973C7.84551 13.7661 7.78611 13.8255 7.71729 13.8721C7.61336 13.9425 7.4879 13.9834 7.35303 13.9834C7.26336 13.9833 7.17779 13.9655 7.1001 13.9326C7.06117 13.9161 7.02436 13.8955 6.98975 13.8721C6.92091 13.8255 6.86153 13.7661 6.81494 13.6973C6.76814 13.6281 6.73371 13.5495 6.71631 13.4648C6.70761 13.4224 6.70361 13.378 6.70361 13.333V9.56934L6.47998 9.79297C6.44838 9.82457 6.41432 9.85224 6.37842 9.87598C6.3061 9.92385 6.22631 9.95578 6.14404 9.97168C6.10312 9.97958 6.06155 9.9834 6.02002 9.9834C5.93665 9.98339 5.8533 9.96744 5.7749 9.93555C5.69671 9.90382 5.62343 9.85634 5.56006 9.79297C5.30649 9.53922 5.3066 9.12784 5.56006 8.87402L6.89404 7.54004L6.99561 7.45703C7.06503 7.41119 7.14145 7.38068 7.22021 7.36426C7.22956 7.36231 7.23913 7.36189 7.24854 7.36035C7.2787 7.35543 7.30887 7.35222 7.33936 7.35156C7.34914 7.35135 7.35887 7.35133 7.36865 7.35156Z" fill="black"/>
<path d="M11.4722 7.36133C11.519 7.36998 11.5642 7.38325 11.6069 7.40137C11.6457 7.41784 11.6828 7.43759 11.7173 7.46094C11.7863 7.50761 11.8454 7.56768 11.8921 7.63672C11.9155 7.67136 11.9362 7.70813 11.9526 7.74707C11.9855 7.82479 12.0034 7.91032 12.0034 8V11.7637L12.2271 11.54C12.3858 11.3814 12.6062 11.3225 12.811 11.3623L12.9312 11.3975C13.0093 11.4291 13.0826 11.4767 13.146 11.54C13.2097 11.6037 13.2578 11.6773 13.2896 11.7559C13.3845 11.9905 13.3363 12.2697 13.146 12.46L11.813 13.793C11.7834 13.8225 11.7507 13.8474 11.7173 13.8701C11.7057 13.878 11.6931 13.8836 11.6812 13.8906C11.6576 13.9045 11.6346 13.9181 11.6099 13.9287C11.5955 13.9349 11.5806 13.9392 11.5659 13.9443C11.5439 13.952 11.5221 13.9596 11.4995 13.9648C11.4827 13.9687 11.4658 13.9711 11.4487 13.9736C11.426 13.977 11.4033 13.9795 11.3804 13.9805C11.3634 13.9812 11.3466 13.9811 11.3296 13.9805C11.3076 13.9797 11.286 13.9776 11.2642 13.9746C11.2472 13.9723 11.2302 13.9705 11.2134 13.9668C11.1865 13.9609 11.1604 13.9527 11.1343 13.9434C11.1239 13.9396 11.1132 13.9369 11.103 13.9326C11.066 13.9172 11.0298 13.8986 10.9956 13.876L10.894 13.793L9.56006 12.46C9.48929 12.3892 9.43998 12.3053 9.40869 12.2168C9.32766 11.988 9.37711 11.7231 9.56006 11.54C9.81387 11.2864 10.2262 11.2864 10.48 11.54L10.7036 11.7637V8C10.7036 7.82038 10.7762 7.65767 10.894 7.54004C10.9527 7.4814 11.0226 7.43424 11.1001 7.40137C11.1419 7.38364 11.1862 7.37097 11.2319 7.3623C11.2712 7.35486 11.3116 7.34963 11.353 7.34961C11.3938 7.34961 11.4335 7.35415 11.4722 7.36133Z" fill="black"/>
<path d="M8.00049 2.0166C9.50386 2.0166 10.8791 2.76161 11.7231 4.09668C13.3151 4.38779 14.6509 5.81519 14.6509 7.66699C14.6508 8.68109 14.2366 9.59837 13.5688 10.2598C13.5111 10.317 13.3548 10.4481 13.3511 10.4512V7.66699C13.3511 6.37739 12.3552 5.42886 11.2749 5.34766L10.9204 5.32129L10.7515 5.00879C10.1532 3.90173 9.12429 3.31641 8.00049 3.31641C6.63443 3.31645 5.34549 4.22131 4.96631 5.82715L4.85693 6.29004L4.3833 6.32617C3.8377 6.36765 3.41599 6.58297 3.12939 6.90527C2.8414 7.22922 2.65093 7.70573 2.65088 8.33301C2.65088 9.12277 3.3341 9.85139 4.18408 9.99219C4.37794 10.5334 4.83911 11.1246 5.40381 11.3164H4.48096C2.88531 11.3164 1.3501 10.0305 1.3501 8.33301C1.35015 7.43553 1.62899 6.63772 2.15869 6.04199C2.59154 5.55522 3.16631 5.23234 3.82373 5.09473C4.46556 3.16151 6.16668 2.01664 8.00049 2.0166Z" fill="black"/>
</svg>

<svg xmlns="http://www.w3.org/2000/svg" width="16" height="16" fill="none" viewBox="0 0 16 16"><path fill="#000" fill-rule="evenodd" d="M8.0004 2.0167c1.5033 0 2.8786.745 3.7226 2.0801 1.592.2911 2.9278 1.7185 2.9278 3.5703-.0001 1.0141-.4143 1.9314-1.0821 2.5928-.0578.0572-.214.1883-.2177.1914V7.6671c0-1.2896-.9959-2.2381-2.0762-2.3193l-.3545-.0264-.169-.3125c-.5982-1.107-1.6271-1.6924-2.751-1.6924-1.366 0-2.655.905-3.0341 2.5108l-.1094.4629-.4736.0361c-.5456.0415-.9673.2568-1.254.5791-.288.324-.4784.8004-.4784 1.4277 0 .7898.6832 1.5184 1.5332 1.6592.1938.5413.655 1.1324 1.2197 1.3242h-.9229c-1.5956 0-3.1308-1.2858-3.1308-2.9834 0-.8974.2789-1.6953.8086-2.291.4328-.4868 1.0076-.8096 1.665-.9473.6418-1.9332 2.343-3.078 4.1768-3.078m3.6064 5.3848a.65.65 0 0 0-.1347-.04.66.66 0 0 0-.1192-.0118.65.65 0 0 0-.1211.0127.64.64 0 0 0-.1318.039.65.65 0 0 0-.2061.1388.648.648 0 0 0-.1904.46v3.7636l-.2236-.2236a.651.651 0 0 0-.92 0c-.1829.183-.2324.4479-.1513.6767a.646.646 0 0 0 .1513.2432l1.334 1.333.1016.083a.64.64 0 0 0 .1074.0566c.0102.0043.0209.0071.0313.0108a.7.7 0 0 0 .0791.0234c.0168.0037.0337.0055.0507.0078a.65.65 0 0 0 .1163.0059.7.7 0 0 0 .0683-.0068c.017-.0026.034-.005.0508-.0088.0226-.0052.0443-.0129.0664-.0205.0147-.0051.0296-.0095.0439-.0157a.6.6 0 0 0 .0713-.0381c.012-.007.0246-.0126.0362-.0205a.64.64 0 0 0 .0957-.0771l1.333-1.333a.651.651 0 0 0 .1435-.7041.65.65 0 0 0-.1435-.2158.65.65 0 0 0-.2149-.1426l-.1201-.0352a.649.649 0 0 0-.584.1778l-.2236.2236V8.0001a.65.65 0 0 0-.0508-.253.65.65 0 0 0-.0605-.1103.65.65 0 0 0-.1748-.1757.65.65 0 0 0-.1104-.0596m-4.2383-.0498a.65.65 0 0 1 .0909.0088 1 1 0 0 1 .0322.0058.7.7 0 0 1 .0781.0225c.0134.0047.027.009.04.0146.0247.0106.0479.0243.0713.0381.012.007.0246.0127.0362.0205a.65.65 0 0 1 .0957.0782l1.333 1.334a.65.65 0 0 1 .1435.704.65.65 0 0 1-.1435.2149.647.647 0 0 1-.46.1894.647.647 0 0 1-.459-.1894l-.2236-.2236v3.7636a.65.65 0 0 1-.1113.3643.65.65 0 0 1-.1748.1748.647.647 0 0 1-.3643.1113.65.65 0 0 1-.253-.0508.65.65 0 0 1-.1103-.0605.654.654 0 0 1-.2734-.4072.66.66 0 0 1-.0127-.1319V9.5695l-.2236.2236a.647.647 0 0 1-.46.1904.65.65 0 0 1-.46-.1904.65.65 0 0 1 0-.919l1.334-1.334.1016-.083a.65.65 0 0 1 .2246-.0927c.0093-.002.019-.0024.0283-.004a.65.65 0 0 1 .1201-.0087"/></svg>
